X:166
T:Sicilian Dance,The TS.166
M:6/8
L:1/8
Q:3/8=120
S:Thomas Sands’ MS,1810,Lincolnshire
R:jig
O:England;Lincolnshire
Z:vmp.Ruairidh Greig, 2011
K:F
C|F>GF AGF|c2cc2B|Afa c2B|A2GF2C|
F>GF AGF|c2cc2f|efe dc=B|c3c2:|
c|gec a2b|g2fe2f|gecb2a|gfef3|
dbb caa|Bggf2F|AGF c2C|F3F2||
(c/B/)|A3 GFG|F2F FAc|c3BAB|A2AA2f|
f2ee2d|d2cc2B|ABc cBA|A3G3||
f2ffdB|c2cceg|b3bge|f2ff2c|
f2ed2c|d2cB2A|GAB c2C|F3F2|]

